<?xml version="1.0" encoding="UTF-8"?>
<map version="1.10" tiledversion="1.11" orientation="orthogonal" renderorder="right-down" width="12" height="9" tilewidth="32" tileheight="32" infinite="0" nextlayerid="3" nextobjectid="2">
 <tileset firstgid="1" name="collision" tilewidth="32" tileheight="32" tilecount="1" columns="1"><grid orientation="orthogonal" width="32" height="32"/><tile id="0"/></tileset>
 <layer id="1" name="collision" width="12" height="9"><data encoding="csv">
1,1,1,1,1,1,1,1,1,1,1,1,
1,0,0,0,0,0,0,0,0,0,0,1,
1,0,0,0,0,0,0,0,0,0,0,1,
1,0,0,0,0,0,0,0,0,0,0,1,
1,0,0,0,0,0,0,0,0,0,0,1,
1,0,0,0,0,0,0,0,0,0,0,1,
1,0,0,0,0,0,0,0,0,0,0,1,
1,0,0,0,0,0,0,0,0,0,0,1,
1,1,1,1,1,1,1,1,1,1,1,1
</data></layer>
 <objectgroup id="2" name="spawns">
  <object id="1" name="player_start" x="208" y="144"><point/></object>
 </objectgroup>
</map>
